src/assets/filled/EmptyWalletAdd.svg

<?xml version="1.0" encoding="UTF-8"?>
<svg width="25" height="24" viewBox="0 0 25 24" xmlns="http://www.w3.org/2000/svg">
 <path d="m8.2591 21.245c0.64697-0.6469 1.0186-1.4729 1.115-2.3263 0.13077-1.1357-0.24778-2.3126-1.115-3.1798-0.5162-0.5162-1.1494-0.8604-1.817-1.0187-1.2733-0.3234-2.6842 0.0138-3.6891 1.0187-0.69515 0.6951-1.0737 1.583-1.1219 2.4984-0.03441 0.3923 0 0.7984 0.10324 1.1907 0.15831 0.6676 0.50244 1.3008 1.0186 1.817 1.5211 1.5211 3.9851 1.5211 5.5062 0zm-1.294-3.4688c0.3992 0 0.72957 0.3303 0.72957 0.7295-0.00688 0.4061-0.33037 0.7296-0.73645 0.7365l-0.72268-0.0069 0.00688 0.6951c-0.00688 0.4061-0.33037 0.7296-0.73645 0.7365-0.40608-0.0069-0.72957-0.3304-0.73645-0.7365l0.00688-0.6951-0.72268 0.0069c-0.40608-0.0069-0.72956-0.3304-0.73645-0.7365 0.00689-0.1996 0.08948-0.3785 0.22025-0.5093s0.30972-0.2134 0.50932-0.2202h0.72956v-0.7571c0-0.2065 0.0826-0.3855 0.21337-0.5162 0.13077-0.1308 0.30972-0.2134 0.5162-0.2134 0.3992 0 0.72957 0.3304 0.72957 0.7296v0.7571h0.72956z"/>
 <path d="m15.095 3.8455v3.6988h-1.46v-3.6988c0-0.26281-0.2336-0.38935-0.3894-0.38935-0.0486 0-0.0973 0.00974-0.146 0.02921l-7.7187 2.9103c-0.51588 0.19468-0.84682 0.68135-0.84682 1.2362v0.65215c-0.88576 0.66189-1.46 1.7228-1.46 2.92v-3.5722c0-1.1583 0.71055-2.1901 1.791-2.5989l7.7285-2.9201c0.2141-0.07787 0.438-0.11681 0.6521-0.11681 0.9734 0 1.8494 0.78843 1.8494 1.8494z"/>
 <path d="m21.57 14.115v0.9733c0 0.2628-0.2045 0.477-0.477 0.4867h-1.4211c-0.5159 0-0.9831-0.3796-1.022-0.8857-0.0292-0.3018 0.0876-0.5841 0.2822-0.7787 0.1753-0.185 0.4186-0.2823 0.6814-0.2823h1.4698c0.2822 0.0097 0.4867 0.2239 0.4867 0.4867z"/>
 <path d="m19.602 12.605h0.9928c0.5354 0 0.9734-0.438 0.9734-0.9734v-0.4282c0-2.0149-1.645-3.6599-3.6599-3.6599h-11.174c-0.82735 0-1.5866 0.27254-2.1998 0.73975-0.88576 0.66189-1.46 1.7228-1.46 2.9201v1.7325c0 0.3699 0.38934 0.6035 0.73975 0.4867 0.54508-0.1849 1.1194-0.2823 1.6936-0.2823 2.9493 0 5.3535 2.4042 5.3535 5.3535 0 0.7008-0.1849 1.4698-0.4769 2.1511-0.1558 0.3505 0.0876 0.769 0.4672 0.769h7.0568c2.0149 0 3.6599-1.645 3.6599-3.6598v-0.185c0-0.5353-0.438-0.9733-0.9734-0.9733h-0.8468c-0.9344 0-1.8299-0.5743-2.0733-1.4795-0.1947-0.7398 0.039-1.4601 0.5256-1.9273 0.3602-0.3699 0.8566-0.584 1.4017-0.584zm-5.334-0.1947h-4.8668c-0.39908 0-0.73002-0.3309-0.73002-0.73s0.33094-0.73 0.73002-0.73h4.8668c0.399 0 0.73 0.3309 0.73 0.73s-0.331 0.73-0.73 0.73z"/>
</svg>

<svg width="25" height="24" viewBox="0 0 25 24"  xmlns="http://www.w3.org/2000/svg">
<path d="M8.25913 21.2448C8.9061 20.5979 9.27777 19.7719 9.37413 18.9185C9.5049 17.7828 9.12635 16.6059 8.25913 15.7387C7.74293 15.2225 7.10972 14.8783 6.4421 14.72C5.1688 14.3966 3.75785 14.7338 2.75297 15.7387C2.05782 16.4338 1.67927 17.3217 1.63109 18.2371C1.59668 18.6294 1.63109 19.0355 1.73433 19.4278C1.89264 20.0954 2.23677 20.7286 2.75297 21.2448C4.27405 22.7659 6.73805 22.7659 8.25913 21.2448ZM6.96518 17.776C7.36438 17.776 7.69475 18.1063 7.69475 18.5055C7.68787 18.9116 7.36438 19.2351 6.9583 19.242L6.23562 19.2351L6.2425 19.9302C6.23562 20.3363 5.91213 20.6598 5.50605 20.6667C5.09997 20.6598 4.77648 20.3363 4.7696 19.9302L4.77648 19.2351L4.0538 19.242C3.64772 19.2351 3.32424 18.9116 3.31735 18.5055C3.32424 18.3059 3.40683 18.127 3.5376 17.9962C3.66837 17.8654 3.84732 17.7828 4.04692 17.776L4.77648 17.776L4.77648 17.0189C4.77648 16.8124 4.85908 16.6334 4.98985 16.5027C5.12062 16.3719 5.29957 16.2893 5.50605 16.2893C5.90525 16.2893 6.23562 16.6197 6.23562 17.0189L6.23562 17.776L6.96518 17.776Z" />
<path d="M15.0952 3.84554V7.54431H13.6352V3.84554C13.6352 3.58273 13.4016 3.45619 13.2458 3.45619C13.1972 3.45619 13.1485 3.46593 13.0998 3.4854L5.38108 6.39574C4.8652 6.59042 4.53426 7.07709 4.53426 7.63191V8.28406C3.6485 8.94595 3.07422 10.0069 3.07422 11.2041V7.63191C3.07422 6.47361 3.78477 5.44185 4.8652 5.03304L12.5937 2.11296C12.8078 2.03509 13.0317 1.99615 13.2458 1.99615C14.2192 1.99615 15.0952 2.78458 15.0952 3.84554Z" />
<path d="M21.5696 14.1153V15.0886C21.5696 15.3514 21.3651 15.5656 21.0926 15.5753H19.6715C19.1556 15.5753 18.6884 15.1957 18.6495 14.6896C18.6203 14.3878 18.7371 14.1055 18.9317 13.9109C19.107 13.7259 19.3503 13.6286 19.6131 13.6286H21.0829C21.3651 13.6383 21.5696 13.8525 21.5696 14.1153Z" />
<path d="M19.6019 12.605H20.5947C21.1301 12.605 21.5681 12.167 21.5681 11.6316V11.2034C21.5681 9.1885 19.9231 7.54352 17.9082 7.54352H6.73405C5.9067 7.54352 5.14748 7.81606 4.53426 8.28327C3.6485 8.94516 3.07422 10.0061 3.07422 11.2034V12.9359C3.07422 13.3058 3.46356 13.5394 3.81397 13.4226C4.35905 13.2377 4.93334 13.1403 5.50762 13.1403C8.4569 13.1403 10.8611 15.5445 10.8611 18.4938C10.8611 19.1946 10.6762 19.9636 10.3842 20.6449C10.2284 20.9954 10.4718 21.4139 10.8514 21.4139H17.9082C19.9231 21.4139 21.5681 19.7689 21.5681 17.7541V17.5691C21.5681 17.0338 21.1301 16.5958 20.5947 16.5958H19.7479C18.8135 16.5958 17.918 16.0215 17.6746 15.1163C17.4799 14.3765 17.7136 13.6562 18.2002 13.189C18.5604 12.8191 19.0568 12.605 19.6019 12.605ZM14.2679 12.4103H9.40106C9.00198 12.4103 8.67104 12.0794 8.67104 11.6803C8.67104 11.2812 9.00198 10.9503 9.40106 10.9503H14.2679C14.6669 10.9503 14.9979 11.2812 14.9979 11.6803C14.9979 12.0794 14.6669 12.4103 14.2679 12.4103Z" />
</svg>
